packages/ffe-icons/icons/filled/md/https.svg

<svg xmlns="http://www.w3.org/2000/svg" height="24" viewBox="0 -960 960 960" width="24"><path d="M252.309-100.001q-29.827 0-51.067-21.241-21.241-21.24-21.241-51.067v-375.382q0-29.827 21.241-51.067 21.24-21.241 51.067-21.241h47.692v-80q0-74.922 52.538-127.46Q405.078-879.997 480-879.997t127.461 52.538q52.538 52.538 52.538 127.46v80h47.692q29.827 0 51.067 21.241 21.241 21.24 21.241 51.067v375.382q0 29.827-21.241 51.067-21.24 21.241-51.067 21.241H252.309Zm227.691-190q29.154 0 49.576-20.423 20.423-20.422 20.423-49.576t-20.423-49.576Q509.154-429.999 480-429.999t-49.576 20.423Q410.001-389.154 410.001-360t20.423 49.576q20.422 20.423 49.576 20.423ZM360-619.999h240v-80q0-50-35-85t-85-35q-50 0-85 35t-35 85v80Z"/></svg>

<svg xmlns="http://www.w3.org/2000/svg" height="24" viewBox="0 -960 960 960" width="24"><path d="M252.31-100q-29.83 0-51.07-21.24Q180-142.48 180-172.31v-375.38q0-29.83 21.24-51.07Q222.48-620 252.31-620H300v-80q0-74.92 52.54-127.46Q405.08-880 480-880q74.92 0 127.46 52.54Q660-774.92 660-700v80h47.69q29.83 0 51.07 21.24Q780-577.52 780-547.69v375.38q0 29.83-21.24 51.07Q737.52-100 707.69-100H252.31ZM480-290q29.15 0 49.58-20.42Q550-330.85 550-360t-20.42-49.58Q509.15-430 480-430t-49.58 20.42Q410-389.15 410-360t20.42 49.58Q450.85-290 480-290ZM360-620h240v-80q0-50-35-85t-85-35q-50 0-85 35t-35 85v80Z"/></svg>
